assets/img/img-jago.svg

<svg width="120" height="39" viewBox="0 0 120 39" fill="none" xmlns="http://www.w3.org/2000/svg">
<path d="M20.5514 0.0780132C18.8899 -0.263196 17.1616 0.536662 16.2868 2.05068C16.0803 2.40934 15.9314 2.79499 15.8373 3.19175C15.4515 1.64758 14.2381 0.395417 12.6966 0.0780132C11.0351 -0.263196 9.30529 0.536662 8.43051 2.05068C8.22396 2.40934 8.07513 2.79499 7.98097 3.19175C7.5937 1.64916 6.38176 0.395417 4.84027 0.0780132C3.1788 -0.263196 1.44898 0.536662 0.574206 2.05068C-0.30361 3.57104 -0.163888 5.56434 0.917435 6.93394C1.99724 8.30195 3.82729 8.8336 5.42649 8.23212C6.70069 7.75284 7.65141 6.61971 7.98249 5.28026C8.12525 5.87698 8.38798 6.44514 8.77374 6.93394C9.85354 8.30195 11.6836 8.8336 13.2828 8.23212C14.557 7.75284 15.5077 6.61971 15.8388 5.28026C15.9815 5.87698 16.2443 6.44514 16.63 6.93394C17.7098 8.30195 19.5399 8.8336 21.1391 8.23212C22.7322 7.63223 23.8242 6.00871 23.8242 4.23918C23.8227 2.24112 22.43 0.465246 20.5514 0.0780132Z" fill="#FDAF27"/>
<path d="M7.58857 20.6793C8.00166 22.525 9.05412 24.2469 10.8963 24.7738C12.6459 25.2737 14.5959 24.4628 15.4965 22.8075C16.0372 21.814 15.9688 20.6904 15.9643 19.5906C15.9612 18.8495 15.9567 18.1099 15.9582 17.3688C15.9582 16.5531 15.9582 15.7373 15.9627 14.9232C15.9673 13.8789 15.9384 12.8648 16.4366 11.9174C17.1246 10.6065 18.4929 9.8003 19.922 9.85902C21.3648 9.91933 22.68 10.8652 23.2541 12.2507C23.6353 13.1711 23.57 14.1694 23.573 15.1486C23.5761 15.9563 23.5761 16.7657 23.5761 17.5735C23.5761 19.3192 23.6808 21.1396 23.3558 22.8583C22.6041 26.837 19.9661 30.2998 16.391 31.8948C12.816 33.4897 8.58181 33.0628 5.3591 30.7934C3.77052 29.6745 2.46139 28.1272 1.59876 26.3386C0.746767 24.5691 0.230405 22.3584 0.556928 20.3778C0.801441 18.9019 1.91769 17.6957 3.3225 17.3942C4.78199 17.0815 6.30981 17.7862 7.07069 19.124C7.34709 19.6081 7.46707 20.135 7.58857 20.6793Z" fill="#FDAF27"/>
<path d="M120 20.4047C120 25.8101 115.761 30.1252 110.409 30.1252C105.094 30.1252 100.927 25.8466 100.927 20.4047C100.927 14.9629 105.094 10.7208 110.444 10.7208C115.763 10.7208 120 14.9994 120 20.4047ZM105.849 20.4412C105.849 23.3693 107.788 25.4705 110.446 25.4705C113.069 25.4705 115.043 23.3312 115.043 20.4412C115.043 17.5132 113.067 15.3374 110.446 15.3374C107.788 15.3374 105.849 17.4767 105.849 20.4412Z" fill="black"/>
<path d="M43.2825 24.0597C44.1846 24.6009 45.0518 25.1548 46.1331 25.0881C47.1689 25.0246 48.115 24.4581 48.7043 23.5677C49.2526 22.7409 49.2404 21.7966 49.2404 20.8396C49.2404 19.2241 49.2404 8.16095 49.2404 7.35633C49.2404 6.79929 49.2116 6.24859 49.4166 5.71694C50.0256 4.14103 51.9984 3.63318 53.2377 4.73616C53.9013 5.32653 54.0897 6.1375 54.0897 7.00243C54.0897 8.74339 54.1383 20.7952 54.0775 21.9902C53.9682 24.147 53.0296 26.2355 51.5549 27.7416C50.0271 29.3032 47.9328 30.1618 45.802 30.1602C43.7563 30.1586 41.5952 29.3381 40.2557 27.6686C39.7181 26.9973 39.4052 26.2038 39.6163 25.3246C39.8198 24.4771 40.4744 23.7994 41.29 23.5995C42.0311 23.4217 42.6538 23.682 43.2825 24.0597Z" fill="black"/>
<path d="M76.8826 25.6149L76.8857 25.6134C76.1415 25.142 75.6813 24.3041 75.6677 23.3947V13.2552C75.6677 11.8555 74.5818 10.7224 73.2423 10.7224C72.0152 10.7224 71.0052 11.6746 70.8427 12.9109C69.6186 11.5317 67.7658 10.7224 65.5424 10.7224C60.5504 10.7224 56.9222 14.8137 56.9222 20.4428C56.9222 26.0736 60.5504 30.1633 65.5424 30.1633C65.5652 30.1633 65.588 30.1618 65.6108 30.1618C65.6336 30.1618 65.6563 30.1633 65.6791 30.1633C68.0741 30.1633 70.1517 29.2207 71.6674 27.6194C72.4419 28.8779 73.6918 29.7999 75.1862 30.0824C75.332 30.1094 75.4778 30.1237 75.6206 30.1237C75.6297 30.1237 75.6388 30.1221 75.6464 30.1205C75.657 30.1205 75.6692 30.1221 75.6798 30.1221C76.9646 30.1221 78.0049 29.035 78.0049 27.6924C78.0065 26.81 77.5554 26.0403 76.8826 25.6149ZM66.4415 25.5467C63.7473 25.5467 61.8444 23.4074 61.8444 20.4428C61.8444 17.4767 63.7838 15.3009 66.4415 15.3009C69.0992 15.3009 70.9308 17.4021 70.9308 20.4428C70.9308 23.482 69.1342 25.5467 66.4415 25.5467Z" fill="black"/>
<path d="M98.2829 13.2727C98.2829 11.8095 97.2775 10.7208 95.9122 10.7208C94.6547 10.7208 93.6493 11.6968 93.5415 13.0473C92.3204 11.5841 90.416 10.7208 88.1181 10.7208C83.1261 10.7208 79.4979 14.8121 79.4979 20.4413C79.4979 26.0704 83.1261 30.1618 88.1181 30.1618C90.3598 30.1618 92.2126 29.3508 93.4336 27.9129V28.516C93.4169 31.5456 91.6173 33.577 88.9443 33.577C87.7992 33.577 86.7695 33.1961 85.9676 32.4772C85.6684 32.209 85.4042 31.8948 85.1809 31.544C84.4398 30.3792 82.9348 30.0634 81.82 30.8378C80.7053 31.6123 80.4031 33.185 81.1442 34.3499C81.6135 35.0863 82.1739 35.7496 82.8102 36.321C84.5036 37.8413 86.6252 38.6444 88.9458 38.6444C94.2963 38.6444 98.1933 34.461 98.2798 28.67L98.2844 27.5733C98.2844 27.5733 98.2844 27.5733 98.2844 27.5717V13.2727H98.2829ZM89.0172 25.5467C86.323 25.5467 84.4201 23.4074 84.4201 20.4428C84.4201 17.4783 86.3595 15.3009 89.0172 15.3009C91.675 15.3009 93.5065 17.4021 93.5065 20.4428C93.5065 23.482 91.7099 25.5467 89.0172 25.5467Z" fill="black"/>
</svg>

<svg fill="none" viewBox="0 0 120 39"><path fill="#FDAF27" d="M20.551.078c-1.661-.341-3.39.459-4.264 1.973a4.252 4.252 0 00-.45 1.14c-.386-1.543-1.599-2.796-3.14-3.113-1.662-.341-3.392.459-4.266 1.973a4.252 4.252 0 00-.45 1.14C7.594 1.65 6.381.396 4.841.079 3.178-.263 1.448.537.573 2.051c-.878 1.52-.738 3.513.343 4.883 1.08 1.368 2.91 1.9 4.51 1.298C6.7 7.752 7.65 6.62 7.981 5.28c.143.597.406 1.165.792 1.654 1.08 1.368 2.91 1.9 4.509 1.298 1.274-.48 2.225-1.612 2.556-2.952.143.597.405 1.165.791 1.654 1.08 1.368 2.91 1.9 4.51 1.298 1.592-.6 2.684-2.223 2.684-3.993 0-1.998-1.393-3.774-3.272-4.161zM7.59 20.679c.413 1.846 1.465 3.568 3.307 4.095 1.75.5 3.7-.311 4.6-1.966.541-.994.473-2.118.468-3.217-.003-.742-.007-1.481-.006-2.222 0-.816 0-1.632.005-2.446.004-1.044-.025-2.058.474-3.006.688-1.31 2.056-2.117 3.485-2.058 1.443.06 2.758 1.006 3.332 2.392.381.92.316 1.918.319 2.898.003.807.003 1.617.003 2.425 0 1.745.105 3.566-.22 5.284-.752 3.979-3.39 7.442-6.965 9.037-3.575 1.595-7.81 1.168-11.032-1.102A11.666 11.666 0 011.6 26.34C.747 24.569.23 22.359.557 20.378c.244-1.476 1.36-2.682 2.765-2.984 1.46-.313 2.988.392 3.749 1.73.276.484.396 1.011.518 1.555z"/><path fill="#000" d="M120 20.405c0 5.405-4.239 9.72-9.591 9.72-5.315 0-9.482-4.278-9.482-9.72 0-5.442 4.167-9.684 9.517-9.684 5.319 0 9.556 4.278 9.556 9.684zm-14.151.036c0 2.928 1.939 5.03 4.597 5.03 2.623 0 4.597-2.14 4.597-5.03 0-2.928-1.976-5.104-4.597-5.104-2.658 0-4.597 2.14-4.597 5.104zM43.282 24.06c.903.54 1.77 1.095 2.851 1.028 1.036-.063 1.982-.63 2.571-1.52.549-.827.536-1.771.536-2.728V7.356c0-.557-.028-1.107.177-1.64.609-1.575 2.581-2.083 3.82-.98.664.59.853 1.402.853 2.266 0 1.741.048 13.793-.013 14.988a8.98 8.98 0 01-2.522 5.752 8.065 8.065 0 01-5.753 2.418c-2.046-.001-4.207-.822-5.546-2.491-.538-.672-.85-1.465-.64-2.344.204-.848.858-1.526 1.674-1.726.741-.177 1.364.083 1.992.46zm33.6 1.555l.004-.002a2.668 2.668 0 01-1.218-2.218v-10.14c0-1.4-1.086-2.533-2.426-2.533-1.227 0-2.237.953-2.4 2.189-1.223-1.38-3.076-2.189-5.3-2.189-4.992 0-8.62 4.092-8.62 9.72 0 5.632 3.628 9.721 8.62 9.721l.069-.001.068.001c2.395 0 4.473-.942 5.988-2.544.775 1.259 2.025 2.18 3.52 2.463.145.027.29.042.434.042.009 0 .018-.002.025-.003l.034.001c1.285 0 2.325-1.087 2.325-2.43a2.444 2.444 0 00-1.122-2.077zm-10.44-.068c-2.695 0-4.598-2.14-4.598-5.104 0-2.966 1.94-5.142 4.598-5.142 2.657 0 4.489 2.101 4.489 5.142 0 3.039-1.797 5.104-4.49 5.104zm31.84-12.274c0-1.463-1.004-2.552-2.37-2.552-1.257 0-2.263.976-2.37 2.326-1.222-1.463-3.126-2.326-5.424-2.326-4.992 0-8.62 4.091-8.62 9.72 0 5.63 3.628 9.72 8.62 9.72 2.242 0 4.095-.81 5.316-2.248v.603c-.017 3.03-1.817 5.061-4.49 5.061-1.145 0-2.175-.38-2.976-1.1a4.483 4.483 0 01-.787-.933c-.741-1.165-2.246-1.48-3.361-.706-1.115.774-1.417 2.347-.676 3.512a9.53 9.53 0 001.666 1.971c1.694 1.52 3.815 2.323 6.136 2.323 5.35 0 9.247-4.183 9.334-9.974l.004-1.097V13.272h-.001zm-9.265 12.274c-2.694 0-4.597-2.14-4.597-5.104 0-2.965 1.94-5.142 4.597-5.142 2.658 0 4.49 2.101 4.49 5.142 0 3.039-1.797 5.104-4.49 5.104z"/></svg>
